assets/features/channel/other/benefit.svg

<svg width="80" height="80" viewBox="0 0 80 80" fill="none" xmlns="http://www.w3.org/2000/svg">
<rect width="80" height="80" rx="8" fill="url(#paint0_linear_2497_22899)"/>
<path d="M36.6447 40.6486C37.2343 41.2383 37.7061 41.9459 38.2958 42.4177H37.7061C37.3523 42.0639 36.9985 41.7101 36.6447 41.2383C34.6398 38.8796 32.5169 35.9312 30.6299 33.2187V32.5111C32.6348 35.2236 34.6398 38.172 36.6447 40.5307V40.6486ZM41.1262 38.6437C39.9469 37.3464 39.1213 35.5774 38.4137 33.5725C37.3523 30.6241 36.6447 27.3219 35.3474 24.4914C34.6398 23.0762 33.8142 21.7789 32.6348 20.5995C32.0452 20.0098 31.4555 19.5381 30.6299 19.1843V19.774C30.9837 20.0098 31.4555 20.2457 31.8093 20.5995C33.5783 22.1327 34.7577 24.1376 35.5832 26.3784C36.2909 28.0295 36.7626 29.9165 37.2343 31.5676C38.0599 34.1622 38.8855 36.7568 40.5366 38.6437C41.3621 39.5872 42.3056 40.4128 43.6029 41.0025C44.1926 41.2383 44.7823 41.4742 45.4899 41.5921C45.7257 41.4742 46.0796 41.3563 46.3154 41.2383C45.3719 41.1204 44.5464 40.8845 43.8388 40.5307C42.7773 40.059 41.9518 39.4693 41.2442 38.6437H41.1262ZM37.2343 39.7052C35.1115 36.8747 33.1066 33.3366 30.9837 30.3882C30.8658 30.1523 30.7479 30.0344 30.6299 29.7985V30.6241C30.6299 30.742 30.8658 30.86 30.9837 31.0958C32.9886 34.1622 34.9936 37.7002 37.2343 40.4128C37.824 41.1204 38.4137 41.828 39.0034 42.5356H39.711C38.8855 41.7101 38.0599 40.7666 37.2343 39.8231V39.7052ZM38.2958 37.8182C36.5267 34.8698 35.1115 31.2138 33.4604 28.0295C32.6348 26.4963 31.6914 25.0811 30.6299 23.9017V24.6093C31.5734 25.7887 32.5169 27.2039 33.2245 28.6192C34.8756 31.8034 36.2909 35.4595 38.1778 38.4079C39.1213 39.8231 40.1828 41.1204 41.598 42.0639C41.7159 42.0639 41.8339 42.2998 41.9518 42.2998C42.3056 42.2998 42.5415 42.2998 42.8953 42.2998C41.0083 41.3563 39.711 39.8231 38.4137 37.8182H38.2958ZM38.8855 36.8747C37.2344 33.9263 36.2909 30.1523 34.6398 26.8501C33.8142 25.199 32.9887 23.6658 31.6914 22.3685C31.3375 22.0147 30.9837 21.6609 30.512 21.3071V22.0147C32.1631 23.43 33.3425 25.317 34.2859 27.5577C35.8191 30.86 36.7626 34.6339 38.5316 37.5823C39.3572 39.1155 40.4186 40.4128 41.8339 41.2383C42.3056 41.5921 42.8953 41.9459 43.6029 42.1818C43.9567 42.1818 44.1926 42.0639 44.5464 41.9459C44.0746 41.828 43.6029 41.5921 43.1312 41.4742C41.2442 40.5307 39.8289 38.8796 38.7675 36.9926L38.8855 36.8747ZM45.9616 29.2088C47.141 30.6241 48.3203 31.8034 49.4997 32.7469C49.6176 32.7469 49.7356 32.9828 49.9714 32.9828C49.9714 32.7469 49.9715 32.5111 49.8535 32.3931C48.5562 31.4496 47.2589 30.1523 45.9616 28.5012C43.7208 25.6708 41.7159 22.0147 39.5931 18.9484C38.8855 17.887 38.0599 16.9435 37.3523 16H36.7626C37.7061 17.0614 38.6496 18.2408 39.5931 19.656C41.7159 22.7224 43.8388 26.3784 46.0796 29.2088H45.9616ZM30.6299 37.8182C32.0452 39.3513 33.5783 41.0025 34.9936 42.4177H35.5832C34.0501 40.8845 32.281 38.9975 30.6299 37.2285V37.8182ZM37.7061 38.7617C35.7012 35.9312 34.0501 32.2752 32.1631 29.2088C31.6914 28.3833 31.1017 27.5577 30.512 26.8501V27.6757C30.9837 28.3833 31.4555 29.0909 31.9272 29.9165C33.8142 32.9828 35.4653 36.6388 37.4702 39.4693C38.2958 40.6486 39.1213 41.5921 40.1828 42.4177H40.7724C40.7724 42.4177 40.8904 42.4177 41.0083 42.4177C39.711 41.4742 38.6496 40.1769 37.7061 38.7617ZM30.6299 41.4742C30.9837 41.828 31.3375 42.0639 31.6914 42.4177H32.1631C31.5734 41.9459 31.1017 41.4742 30.512 41.0025V41.4742H30.6299ZM30.6299 35.1056V35.6953C32.5169 37.9361 34.4039 40.2948 36.1729 42.1818C36.1729 42.1818 36.2909 42.2998 36.4088 42.4177H36.9985C36.7626 42.1818 36.4088 41.828 36.1729 41.5921C34.4039 39.5872 32.5169 37.3464 30.6299 35.1056ZM30.6299 39.7052C31.4555 40.5307 32.281 41.2383 32.9887 41.9459C33.1066 42.0639 33.2245 42.1818 33.4604 42.2998H33.9321C32.8707 41.2383 31.6914 40.1769 30.6299 39.1155V39.5872V39.7052ZM46.6692 19.4201C45.8437 18.7125 45.1361 18.0049 44.4285 17.1794C44.0746 16.9435 43.7208 16.8256 43.367 16.7076C44.6643 17.887 45.9616 19.1843 47.2589 20.4816C47.141 20.1278 46.9051 19.774 46.6692 19.4201ZM46.6692 27.086C46.6692 26.9681 46.7872 26.8501 46.9051 26.7322C44.6643 24.0197 42.4235 20.7174 40.1828 17.887C39.711 17.2973 39.2393 16.5897 38.6496 16.1179H38.0599C38.7675 16.9435 39.4751 17.769 40.0648 18.5946C42.1877 21.3071 44.3105 24.4914 46.5513 27.086H46.6692ZM41.598 37.7002C40.4186 36.285 39.711 34.516 39.1213 32.5111C38.2958 29.5627 37.824 26.1425 36.5267 23.1941C35.9371 21.6609 34.9936 20.3636 33.8142 19.1843C32.8707 18.3587 31.8093 17.6511 30.512 17.0614V17.6511C31.4555 18.1228 32.281 18.5946 32.9887 19.1843C34.8756 20.7174 35.9371 22.8403 36.6447 25.199C37.2343 26.9681 37.5882 28.7371 37.942 30.5061C38.2958 31.8034 38.5316 33.2187 39.0034 34.398C39.711 36.285 40.6545 37.9361 42.1877 39.1155C43.367 39.941 44.7823 40.6486 46.5513 40.8845C46.7872 40.7666 47.023 40.5307 47.141 40.4128C45.9616 40.2948 44.9002 39.941 43.9567 39.5872C42.8953 39.1155 42.0697 38.4079 41.3621 37.7002H41.598ZM49.3818 34.2801C47.6127 33.3366 46.1975 31.8034 44.7823 29.7985C42.7773 26.8501 41.0083 23.1941 39.1213 20.1278C38.1778 18.5946 37.2343 17.1794 36.055 16.1179H35.3474C36.6447 17.4152 37.824 19.0663 39.0034 20.8354C40.8904 24.0197 42.6594 27.6757 44.7823 30.5061C45.8437 31.9214 47.023 33.2187 48.3203 34.1622C48.91 34.516 49.4997 34.8698 50.2073 35.1056C50.2073 34.9877 50.2073 34.7518 50.2073 34.6339C49.9715 34.6339 49.7356 34.398 49.4997 34.2801H49.3818ZM47.8486 23.312C47.8486 23.1941 47.8486 22.9582 47.8486 22.8403C45.8437 20.7174 43.6029 18.3587 41.7159 16.3538C41.4801 16.3538 41.3621 16.3538 41.1262 16.3538C41.1262 16.3538 41.2442 16.4717 41.3621 16.5897C43.485 18.8305 45.7258 21.3071 47.9665 23.5479L47.8486 23.312ZM47.4948 25.4349C47.4948 25.317 47.4948 25.0811 47.6127 24.9631C45.254 22.3685 42.8953 19.3022 40.6545 16.8256C40.4186 16.5897 40.1828 16.3538 40.0648 16.1179C39.9469 16.1179 39.711 16.1179 39.5931 16.1179C39.9469 16.5897 40.4186 17.0614 40.7724 17.5332C42.8953 20.0098 45.254 22.9582 47.4948 25.4349ZM42.4235 32.3931C40.7724 29.4447 39.711 25.6708 38.1778 22.3685C37.3523 20.7174 36.4088 19.1843 35.2294 17.887C34.5218 17.1794 33.8142 16.5897 32.9887 16.1179H31.8093C32.6348 16.4717 33.3425 16.9435 33.9321 17.4152C35.7012 18.8305 36.8805 20.8354 37.942 23.0762C39.4751 26.3784 40.5366 30.1523 42.3056 33.1007C43.1312 34.6339 44.1926 35.9312 45.6078 36.8747C46.6692 37.5823 47.8486 38.0541 49.2638 38.2899C49.2638 38.172 49.3818 37.9361 49.4997 37.8182C48.5562 37.7002 47.6127 37.4644 46.9051 36.9926C45.0181 36.0491 43.6029 34.398 42.5415 32.5111L42.4235 32.3931ZM42.8953 36.4029C41.7159 34.9877 40.8904 33.2187 40.1828 31.3317C39.1213 28.3833 38.4137 25.0811 36.9985 22.2506C36.2909 20.8354 35.4653 19.5381 34.2859 18.3587C33.3425 17.4152 32.0452 16.7076 30.6299 16.1179V16.7076C31.6914 17.1794 32.6348 17.6511 33.4604 18.3587C35.2294 19.8919 36.4088 21.8968 37.2343 24.1376C37.942 25.7887 38.4137 27.6757 38.8855 29.3268C39.711 31.9214 40.5366 34.516 42.1877 36.4029C43.0132 37.3464 43.9567 38.172 45.254 38.7617C46.0796 39.1155 47.023 39.4693 48.0845 39.5872C48.2024 39.4693 48.3203 39.2334 48.4383 39.1155C47.2589 38.9975 46.1975 38.7617 45.3719 38.2899C44.3105 37.8182 43.485 37.2285 42.7773 36.4029H42.8953ZM43.6029 31.0958C41.7159 28.1474 40.4186 24.4914 38.6496 21.1892C37.7061 19.5381 36.7626 18.1228 35.5832 16.8256C35.3474 16.5897 34.9936 16.2359 34.6398 16H33.8142C33.9321 16.1179 34.168 16.2359 34.2859 16.3538C35.9371 17.769 37.2343 19.656 38.4137 21.7789C40.1828 24.9631 41.4801 28.7371 43.485 31.6855C44.4285 33.1007 45.4899 34.398 46.9051 35.3415C47.7307 35.9312 48.6742 36.4029 49.8535 36.6388C49.8535 36.5209 49.8535 36.285 49.9714 36.1671C49.2638 36.0491 48.6742 35.8133 48.2024 35.5774C46.3154 34.6339 44.9002 33.1007 43.7208 31.0958H43.6029ZM25.9125 59.5184C24.8511 59.5184 24.0255 60.344 24.0255 61.4054C24.0255 62.4668 24.8511 63.2924 25.9125 63.2924C26.9739 63.2924 27.7995 62.4668 27.7995 61.4054C27.7995 60.344 26.9739 59.5184 25.9125 59.5184ZM25.9125 64C24.3793 64 23.2 62.9386 23.2 61.4054V56.9238H24.0255V59.5184C24.4972 59.0467 25.2049 58.8108 25.9125 58.8108C27.4457 58.8108 28.625 59.8722 28.625 61.4054C28.625 62.9386 27.4457 64 25.9125 64ZM33.6963 60.9337C33.5783 59.9902 32.8707 59.5184 31.9272 59.5184C30.9837 59.5184 30.3941 60.1081 30.1582 60.9337H33.6963ZM30.1582 61.6413C30.2761 62.5848 30.9837 63.1744 31.9272 63.1744C32.8707 63.1744 33.2245 62.8206 33.4604 62.3489H34.2859C33.8142 63.4103 32.9886 64 31.9272 64C30.8658 64 29.3326 62.8206 29.3326 61.4054C29.3326 59.9902 30.3941 58.8108 31.9272 58.8108C33.4604 58.8108 34.4039 59.9902 34.4039 61.4054C34.4039 62.8206 34.4039 61.6413 34.4039 61.6413H30.1582ZM39.3572 61.0516C39.3572 59.9902 38.8855 59.5184 38.0599 59.5184C37.2344 59.5184 36.5267 60.226 36.5267 61.1695V63.8821H35.7012V58.8108H36.2909V59.6364C36.8805 59.0467 37.4702 58.6929 38.2958 58.6929C39.4751 58.6929 40.1828 59.6364 40.1828 60.8157V63.8821H39.3572V61.0516ZM45.7258 60.9337C45.6078 59.9902 44.9002 59.5184 43.9567 59.5184C43.0132 59.5184 42.4235 60.1081 42.1877 60.9337H45.7258ZM42.1877 61.6413C42.3056 62.5848 43.0132 63.1744 43.9567 63.1744C44.9002 63.1744 45.254 62.8206 45.4899 62.3489H46.3154C45.8437 63.4103 45.0181 64 43.9567 64C42.8953 64 41.3621 62.8206 41.3621 61.4054C41.3621 59.9902 42.4235 58.8108 43.9567 58.8108C45.4899 58.8108 46.4334 59.9902 46.4334 61.4054C46.4334 62.8206 46.4334 61.6413 46.4334 61.6413H42.1877ZM50.3253 58.9287V59.6364H48.7921V64H47.9665V59.6364H47.023V58.9287H47.9665V58.5749C47.9665 57.5135 48.4383 56.9238 49.6176 56.9238H50.3253V57.5135H49.7356C49.028 57.5135 48.7921 57.7494 48.7921 58.457V58.8108H50.3253V58.9287ZM51.2687 58.8108H52.0943V63.8821H51.2687V58.8108ZM55.9862 63.1744H56.5759V63.8821H55.8683C54.8068 63.8821 54.0992 63.1744 54.0992 62.113V59.5184H53.0378V58.8108H54.0992V57.2776H54.9248V58.8108H56.5759V59.5184H54.9248V62.113C54.9248 62.8206 55.2786 63.1744 55.9862 63.1744ZM38.2958 51.145C38.2958 51.4988 38.2958 51.8526 38.6496 52.2064C38.8855 52.5602 39.1213 52.7961 39.4751 52.914C39.8289 52.7961 40.0648 52.5602 40.3007 52.2064C40.5366 51.8526 40.6545 51.4988 40.6545 51.145C40.6545 50.7912 40.6545 50.3194 40.3007 50.0835C40.0648 49.8477 39.8289 49.7297 39.3572 49.7297C39.0034 49.7297 38.6496 49.8477 38.4137 50.0835C38.1778 50.3194 38.0599 50.6732 38.0599 51.145H38.2958ZM56.5759 49.7297V51.7346C56.5759 52.3243 56.4579 52.7961 56.1041 53.1499C55.7503 53.5037 55.3965 53.6216 54.8068 53.6216H49.8535C49.2638 53.6216 48.7921 53.3857 48.4383 53.0319C48.0845 53.5037 47.6127 53.6216 47.023 53.6216H40.3007C39.9469 53.6216 39.8289 53.6216 39.5931 53.5037C39.3572 53.5037 39.2393 53.6216 38.8855 53.6216H33.2245C32.6348 53.6216 32.1631 53.3857 31.8093 53.0319C31.4555 53.5037 30.9837 53.6216 30.3941 53.6216H24.969C24.4972 53.6216 24.0255 53.5037 23.6717 53.1499C23.3179 52.7961 23.2 52.3243 23.2 51.8526V50.0835H23.9076V51.7346C23.9076 52.5602 24.2614 52.914 25.0869 52.914H30.2761C31.1017 52.914 31.4555 52.5602 31.4555 51.7346V49.7297H32.1631V51.7346C32.1631 52.5602 32.5169 52.914 33.3425 52.914H38.4137C37.824 52.4423 37.5882 51.8526 37.5882 51.145C37.5882 50.4373 37.824 49.8477 38.1778 49.4939C38.5316 49.14 39.0034 48.9042 39.5931 48.9042C40.3007 48.9042 40.7724 49.14 41.1262 49.6118C41.4801 49.9656 41.598 50.5553 41.598 51.145C41.598 51.8526 41.3621 52.4423 40.7724 52.914H46.7872C47.6127 52.914 47.9665 52.5602 47.9665 51.7346V49.7297H48.6742V51.7346C48.6742 52.5602 49.028 52.914 49.8535 52.914H54.571C55.3965 52.914 55.7503 52.5602 55.7503 51.7346V49.7297H56.4579H56.5759ZM51.2687 57.2776C51.2687 57.3956 51.2687 57.5135 51.2687 57.6314C51.2687 57.6314 51.5046 57.7494 51.6226 57.7494C51.7405 57.7494 51.8584 57.7494 51.9764 57.6314C51.9764 57.6314 51.9764 57.3956 51.9764 57.2776C51.9764 57.1597 51.9764 57.0418 51.9764 56.9238C51.9764 56.9238 51.7405 56.9238 51.6226 56.9238C51.5046 56.9238 51.3867 56.9238 51.2687 56.9238C51.2687 56.9238 51.2687 57.1597 51.2687 57.2776ZM55.2786 55.2727C55.2786 55.3907 55.2786 55.5086 55.2786 55.6265C55.2786 55.6265 55.5145 55.7445 55.6324 55.7445C55.7503 55.7445 55.8683 55.7445 55.9862 55.6265C55.9862 55.6265 55.9862 55.3907 55.9862 55.2727C55.9862 55.1548 55.9862 55.0369 55.9862 54.9189C55.9862 54.9189 55.7503 54.9189 55.6324 54.9189C55.5145 54.9189 55.3965 54.9189 55.2786 54.9189C55.2786 54.9189 55.2786 55.1548 55.2786 55.2727ZM47.8486 47.7248C47.8486 47.8428 47.8486 47.9607 47.8486 48.0786C47.8486 48.0786 48.0845 48.1966 48.2024 48.1966C48.3203 48.1966 48.4383 48.1966 48.5562 48.0786C48.5562 48.0786 48.5562 47.8428 48.5562 47.7248C48.5562 47.6069 48.5562 47.4889 48.5562 47.371C48.5562 47.371 48.3203 47.371 48.2024 47.371C48.0845 47.371 47.9665 47.371 47.8486 47.371C47.8486 47.371 47.8486 47.6069 47.8486 47.7248ZM39.0034 47.7248C39.0034 47.8428 39.0034 47.9607 39.0034 48.0786C39.0034 48.0786 39.2393 48.1966 39.3572 48.1966C39.4751 48.1966 39.5931 48.1966 39.711 48.0786C39.711 48.0786 39.711 47.8428 39.711 47.7248C39.711 47.6069 39.711 47.4889 39.711 47.371C39.711 47.371 39.4751 47.371 39.3572 47.371C39.2393 47.371 39.1213 47.371 39.0034 47.371C39.0034 47.371 39.0034 47.6069 39.0034 47.7248ZM28.1533 48.5504C28.1533 48.6683 28.1533 48.7862 28.1533 48.9042C28.1533 48.9042 28.3891 49.0221 28.5071 49.0221C28.625 49.0221 28.743 49.0221 28.8609 48.9042C28.8609 48.9042 28.8609 48.6683 28.8609 48.5504C28.8609 48.4324 28.8609 48.3145 28.8609 48.1966C28.8609 48.1966 28.625 48.1966 28.5071 48.1966C28.3891 48.1966 28.2712 48.1966 28.1533 48.1966C28.1533 48.1966 28.1533 48.4324 28.1533 48.5504ZM26.856 48.5504C26.856 48.6683 26.856 48.7862 26.856 48.9042C26.856 48.9042 27.0918 49.0221 27.2098 49.0221C27.3277 49.0221 27.4457 49.0221 27.5636 48.9042C27.5636 48.9042 27.5636 48.6683 27.5636 48.5504C27.5636 48.4324 27.5636 48.3145 27.5636 48.1966C27.5636 48.1966 27.3277 48.1966 27.2098 48.1966C27.0918 48.1966 26.9739 48.1966 26.856 48.1966C26.856 48.1966 26.856 48.4324 26.856 48.5504Z" fill="white"/>
<defs>
<linearGradient id="paint0_linear_2497_22899" x1="0" y1="0" x2="80" y2="80" gradientUnits="userSpaceOnUse">
<stop stop-color="#EA5646"/>
<stop offset="1" stop-color="#E60C32"/>
</linearGradient>
</defs>
</svg>

<svg xmlns="http://www.w3.org/2000/svg" width="80" height="80" fill="none" viewBox="0 0 80 80"><rect width="80" height="80" fill="url(#a)" rx="8"/><path fill="#fff" d="M36.645 40.649c.59.59 1.061 1.297 1.65 1.769h-.589c-.354-.354-.708-.708-1.061-1.18-2.005-2.358-4.128-5.307-6.015-8.02v-.707c2.005 2.713 4.01 5.661 6.015 8.02zm4.481-2.005c-1.18-1.298-2.005-3.067-2.712-5.071-1.062-2.949-1.77-6.251-3.067-9.082-.707-1.415-1.533-2.712-2.712-3.892-.59-.59-1.18-1.06-2.005-1.415v.59c.354.236.826.472 1.18.825 1.768 1.534 2.948 3.539 3.773 5.78.708 1.65 1.18 3.537 1.651 5.189.826 2.594 1.651 5.189 3.303 7.076.825.943 1.769 1.769 3.066 2.358.59.236 1.18.472 1.887.59.236-.118.59-.236.825-.354q-1.415-.176-2.476-.707c-1.062-.472-1.887-1.062-2.595-1.887zm-3.892 1.061c-2.123-2.83-4.127-6.368-6.25-9.317-.118-.236-.236-.354-.354-.59v.826c0 .118.236.236.354.472 2.005 3.066 4.01 6.604 6.25 9.317l1.77 2.123h.707c-.825-.826-1.651-1.77-2.477-2.713zm1.062-1.887c-1.77-2.948-3.184-6.604-4.836-9.788-.825-1.534-1.769-2.949-2.83-4.128v.707c.943 1.18 1.887 2.595 2.595 4.01 1.65 3.184 3.066 6.84 4.953 9.789.943 1.415 2.005 2.712 3.42 3.656.118 0 .236.236.354.236h.943c-1.887-.944-3.184-2.477-4.481-4.482zm.59-.943c-1.652-2.949-2.595-6.723-4.246-10.025-.826-1.651-1.651-3.184-2.949-4.482-.354-.353-.707-.707-1.179-1.06v.707c1.651 1.415 2.83 3.302 3.774 5.543 1.533 3.302 2.477 7.076 4.246 10.024.825 1.533 1.887 2.83 3.302 3.656a6.3 6.3 0 0 0 1.769.944c.354 0 .59-.118.943-.236-.471-.118-.943-.354-1.415-.472-1.887-.943-3.302-2.594-4.364-4.481zm7.076-7.666q1.768 2.122 3.538 3.538c.118 0 .236.236.471.236 0-.236 0-.472-.117-.59q-1.947-1.414-3.892-3.892c-2.241-2.83-4.246-6.486-6.369-9.553-.708-1.061-1.533-2.005-2.24-2.948h-.59a33 33 0 0 1 2.83 3.656c2.123 3.066 4.246 6.722 6.487 9.553zm-15.332 8.61c1.415 1.532 2.948 3.183 4.364 4.599h.59c-1.534-1.533-3.303-3.42-4.954-5.19zm7.076.943c-2.005-2.83-3.656-6.487-5.543-9.553a17 17 0 0 0-1.651-2.359v.826c.472.707.944 1.415 1.415 2.24 1.887 3.067 3.538 6.723 5.543 9.553.826 1.18 1.651 2.123 2.713 2.949h.825c-1.297-.944-2.358-2.241-3.302-3.656m-7.076 2.712c.354.354.707.59 1.061.944h.472c-.59-.472-1.061-.944-1.651-1.416v.472zm0-6.368v.59c1.887 2.24 3.774 4.599 5.543 6.486l.236.236h.59l-.826-.826c-1.77-2.005-3.656-4.246-5.543-6.486m0 4.6c.826.825 1.651 1.532 2.359 2.24.118.118.236.236.471.354h.472c-1.061-1.062-2.24-2.123-3.302-3.184zM46.67 19.42a20 20 0 0 1-2.242-2.24c-.353-.236-.707-.354-1.061-.472 1.297 1.179 2.595 2.476 3.892 3.774-.118-.354-.354-.708-.59-1.062m0 7.666c0-.118.117-.236.235-.354-2.24-2.712-4.482-6.015-6.722-8.845-.472-.59-.944-1.297-1.533-1.77h-.59c.707.826 1.415 1.652 2.005 2.478 2.123 2.712 4.246 5.896 6.486 8.491zM41.597 37.7c-1.18-1.415-1.887-3.184-2.477-5.189-.825-2.948-1.297-6.369-2.594-9.317-.59-1.533-1.533-2.83-2.713-4.01a13.2 13.2 0 0 0-3.302-2.123v.59c.944.472 1.769.944 2.477 1.533 1.887 1.533 2.948 3.656 3.656 6.015.59 1.77.943 3.538 1.297 5.307.354 1.297.59 2.713 1.061 3.892.708 1.887 1.651 3.538 3.185 4.717 1.179.826 2.594 1.534 4.363 1.77.236-.118.472-.354.59-.472-1.18-.118-2.24-.472-3.184-.826-1.062-.472-1.887-1.18-2.595-1.887zm7.784-3.42c-1.77-.943-3.184-2.477-4.6-4.482-2.005-2.948-3.774-6.604-5.66-9.67-.944-1.533-1.888-2.949-3.067-4.01h-.708c1.298 1.297 2.477 2.948 3.656 4.717 1.887 3.185 3.656 6.84 5.78 9.671 1.06 1.415 2.24 2.713 3.537 3.656.59.354 1.18.708 1.887.944v-.472c-.236 0-.471-.236-.707-.354zm-1.533-10.968v-.472c-2.005-2.123-4.246-4.481-6.133-6.486h-.59l.236.236c2.123 2.24 4.364 4.717 6.605 6.958zm-.354 2.123c0-.118 0-.354.118-.472-2.359-2.594-4.718-5.66-6.959-8.137-.235-.236-.471-.472-.59-.708h-.47c.353.472.825.943 1.178 1.415 2.123 2.477 4.482 5.425 6.723 7.902m-5.071 6.958c-1.652-2.948-2.713-6.722-4.246-10.024-.826-1.652-1.77-3.185-2.949-4.482-.707-.708-1.415-1.297-2.24-1.77h-1.18a9.3 9.3 0 0 1 2.123 1.298c1.77 1.416 2.948 3.42 4.01 5.661 1.533 3.302 2.595 7.076 4.364 10.025.825 1.533 1.887 2.83 3.302 3.774 1.061.707 2.24 1.18 3.656 1.415 0-.118.118-.354.236-.472-.944-.118-1.887-.354-2.595-.825-1.887-.944-3.302-2.595-4.364-4.482zm.471 4.01c-1.18-1.415-2.005-3.184-2.712-5.071-1.062-2.949-1.77-6.25-3.184-9.081-.708-1.416-1.534-2.713-2.713-3.892-.944-.944-2.24-1.651-3.656-2.241v.59c1.061.471 2.005.943 2.83 1.65 1.77 1.534 2.949 3.539 3.774 5.78.708 1.65 1.18 3.538 1.651 5.189.826 2.594 1.652 5.189 3.303 7.076.825.943 1.769 1.769 3.066 2.359.826.353 1.769.707 2.83.825.118-.118.236-.354.354-.472-1.18-.117-2.24-.353-3.066-.825-1.062-.472-1.887-1.062-2.595-1.887zm.708-5.307c-1.887-2.949-3.184-6.605-4.953-9.907-.944-1.65-1.887-3.066-3.067-4.363-.236-.236-.59-.59-.943-.826h-.826c.118.118.354.236.472.354 1.651 1.415 2.948 3.302 4.128 5.425 1.769 3.184 3.066 6.958 5.071 9.907.944 1.415 2.005 2.712 3.42 3.656.826.59 1.77 1.06 2.948 1.297 0-.118 0-.354.118-.472a6.2 6.2 0 0 1-1.769-.59c-1.887-.943-3.302-2.476-4.481-4.481zm-17.69 28.422a1.863 1.863 0 0 0-1.887 1.887c0 1.062.825 1.887 1.887 1.887a1.863 1.863 0 0 0 1.886-1.887 1.863 1.863 0 0 0-1.886-1.887m0 4.482c-1.534 0-2.713-1.061-2.713-2.595v-4.481h.826v2.594c.471-.471 1.179-.707 1.887-.707 1.533 0 2.712 1.061 2.712 2.594 0 1.534-1.18 2.595-2.712 2.595m7.783-3.066c-.118-.944-.825-1.416-1.769-1.416-.943 0-1.533.59-1.769 1.416zm-3.538.707c.118.944.826 1.533 1.77 1.533.943 0 1.296-.353 1.532-.825h.826C33.814 63.41 32.989 64 31.927 64c-1.061 0-2.594-1.18-2.594-2.595s1.061-2.594 2.594-2.594 2.477 1.18 2.477 2.594v.236zm9.2-.59c0-1.06-.472-1.533-1.298-1.533s-1.533.708-1.533 1.651v2.713H35.7v-5.071h.59v.825c.59-.59 1.18-.943 2.005-.943 1.18 0 1.887.943 1.887 2.123v3.066h-.826zm6.368-.117c-.118-.944-.826-1.416-1.77-1.416-.943 0-1.533.59-1.768 1.416zm-3.538.707c.118.944.825 1.533 1.769 1.533.943 0 1.297-.353 1.533-.825h.825C45.844 63.41 45.018 64 43.957 64s-2.595-1.18-2.595-2.595 1.061-2.594 2.595-2.594c1.533 0 2.476 1.18 2.476 2.594v.236zm8.137-2.712v.707h-1.533V64h-.825v-4.364h-.944v-.707h.944v-.354c0-1.062.471-1.651 1.65-1.651h.708v.59h-.59c-.707 0-.943.235-.943.943v.354h1.533zm.944-.118h.825v5.071h-.825zm4.717 4.363h.59v.708h-.708c-1.061 0-1.769-.708-1.769-1.769v-2.595h-1.061v-.707h1.061v-1.533h.826v1.533h1.65v.707h-1.65v2.595q0 1.061 1.061 1.061m-17.69-12.029c0 .354 0 .708.354 1.061.236.354.471.59.825.708.354-.118.59-.354.826-.708q.353-.53.353-1.061c0-.354 0-.826-.353-1.062-.236-.235-.472-.353-.944-.353-.354 0-.707.118-.943.354q-.354.354-.354 1.061zm18.28-1.415v2.005c0 .59-.118 1.061-.472 1.415s-.707.472-1.297.472h-4.954c-.59 0-1.06-.236-1.415-.59-.354.472-.825.59-1.415.59H40.3c-.354 0-.472 0-.708-.118-.236 0-.354.118-.708.118h-5.66c-.59 0-1.062-.236-1.416-.59-.354.472-.825.59-1.415.59H24.97c-.472 0-.944-.118-1.297-.472-.354-.354-.472-.826-.472-1.297v-1.77h.708v1.652c0 .825.353 1.179 1.179 1.179h5.19c.825 0 1.178-.354 1.178-1.18V49.73h.708v2.005c0 .825.354 1.179 1.18 1.179h5.07c-.589-.472-.825-1.061-.825-1.769s.236-1.297.59-1.651.825-.59 1.415-.59c.708 0 1.18.236 1.533.708.354.354.472.943.472 1.533 0 .708-.236 1.297-.826 1.769h6.015c.826 0 1.18-.354 1.18-1.18V49.73h.707v2.005c0 .825.354 1.179 1.18 1.179h4.717c.826 0 1.18-.354 1.18-1.18V49.73h.825m-5.307 7.548v.353s.236.118.354.118.235 0 .353-.118v-.707h-.707zm4.01-2.005v.353s.235.119.353.119.236 0 .354-.118v-.708h-.707zm-7.43-7.548v.354s.236.118.353.118c.118 0 .236 0 .354-.118v-.708h-.707zm-8.846 0v.354s.236.118.354.118.236 0 .354-.118v-.708h-.708zm-10.85.825v.354s.236.118.354.118.236 0 .354-.118v-.707h-.708zm-1.297 0v.354s.236.118.354.118.236 0 .354-.118v-.707h-.708z"/><defs><linearGradient id="a" x1="0" x2="80" y1="0" y2="80" gradientUnits="userSpaceOnUse"><stop stop-color="#ea5646"/><stop offset="1" stop-color="#e60c32"/></linearGradient></defs></svg>
